X: 27556
T: Monday Morning, The
R: reel
M: 4/4
K: Eminor
gfed BAGE|CDEF GE (3EDE|FDFA d2 (3efg|fadf a3 f|
gfed BAGE|CDEF GE (3EDE|FDFA d2 (3efg|fadf e4:|
bggf gfed|Bdgb Bdgb|affe fede|fadf a2 (3fga|
bggf gfed|Bdgb Bdgb|c'bag fgag|f2 df e4:|

